public/assets/icons/file-image-light.svg

<svg width="241" height="118" viewBox="0 0 241 118" fill="none" xmlns="http://www.w3.org/2000/svg">
<path d="M15 60C15 32.3858 37.3858 10 65 10H241V118H15V60Z" fill="#F2F4F8"/>
<path d="M60.2007 35.2273C59.654 34.934 58.5073 34.6273 56.9473 35.7207L54.9873 37.1073C54.8407 32.9607 53.0407 31.334 48.6673 31.334H40.6673C36.1073 31.334 34.334 33.1073 34.334 37.6673V48.334C34.334 51.4006 36.0007 54.6673 40.6673 54.6673H48.6673C53.0407 54.6673 54.8407 53.0406 54.9873 48.894L56.9473 50.2806C57.774 50.8673 58.494 51.054 59.0673 51.054C59.5607 51.054 59.9473 50.9073 60.2007 50.774C60.7473 50.494 61.6673 49.734 61.6673 47.8273V38.174C61.6673 36.2673 60.7473 35.5073 60.2007 35.2273ZM46.6673 42.174C45.294 42.174 44.1607 41.054 44.1607 39.6673C44.1607 38.2807 45.294 37.1607 46.6673 37.1607C48.0407 37.1607 49.174 38.2807 49.174 39.6673C49.174 41.054 48.0407 42.174 46.6673 42.174Z" fill="white"/>
<g opacity="0.4" filter="url(#filter0_f_228_4006)">
<circle cx="48" cy="48" r="33" fill="#56B8FF"/>
</g>
<circle cx="48" cy="43" r="33" fill="#56B8FF"/>
<path d="M40.3311 51.5072C39.287 51.5053 38.2698 51.1821 37.4226 50.5831C36.5754 49.9841 35.9408 49.1393 35.6081 48.1677L35.5614 48.0172C35.412 47.5583 35.3343 47.0798 35.3307 46.5981V37.6727L32.0958 48.2738C31.8978 49.0281 32.0093 49.8286 32.4063 50.503C32.8033 51.1775 33.4541 51.672 34.2186 51.8803L54.8376 57.3012C55.095 57.3667 55.3524 57.3981 55.6057 57.3981C56.9338 57.3981 58.1473 56.5328 58.4873 55.2578L59.6887 51.5072H40.3311ZM43.9981 37.7618C45.4689 37.7618 46.665 36.5875 46.665 35.1436C46.665 33.6996 45.4689 32.5254 43.9981 32.5254C42.5273 32.5254 41.3312 33.6996 41.3312 35.1436C41.3312 36.5875 42.5273 37.7618 43.9981 37.7618Z" fill="white"/>
<path d="M60.6653 28.5996H40.6637C39.7799 28.6006 38.9326 28.9458 38.3076 29.5593C37.6827 30.1728 37.3311 31.0047 37.3301 31.8723V46.2723C37.3301 48.0763 38.8262 49.5451 40.6637 49.5451H60.6653C62.5028 49.5451 63.9989 48.0763 63.9989 46.2723V31.8723C63.9989 30.0684 62.5028 28.5996 60.6653 28.5996ZM40.6637 31.2178H60.6653C60.8421 31.2178 61.0117 31.2868 61.1368 31.4095C61.2618 31.5323 61.332 31.6987 61.332 31.8723V41.1656L57.1197 36.3403C56.897 36.0891 56.6223 35.8874 56.314 35.7486C56.0057 35.6097 55.6707 35.537 55.3315 35.5352C54.9912 35.5369 54.6554 35.6117 54.3476 35.7544C54.0398 35.8971 53.7676 36.1042 53.5501 36.3612L48.5977 42.1971L46.9842 40.6171C46.5454 40.187 45.9508 39.9454 45.3307 39.9454C44.7107 39.9454 44.116 40.187 43.6773 40.6171L39.997 44.2288V31.8723C39.997 31.6987 40.0672 31.5323 40.1922 31.4095C40.3173 31.2868 40.4869 31.2178 40.6637 31.2178Z" fill="white"/>
<mask id="mask0_228_4006" style="mask-type:alpha" maskUnits="userSpaceOnUse" x="15" y="32" width="226" height="86">
<rect x="15" y="32" width="226" height="86" fill="#D9D9D9"/>
</mask>
<g mask="url(#mask0_228_4006)">
<path d="M15.1325 132.681V114.105C14.3273 105.471 16.2976 88.3456 46.836 86.2132C74.8842 84.2548 80.8534 80.3014 95.5529 54.5306C107.653 33.3174 126.126 32.9157 143.043 32.5477C145.259 32.4995 147.449 32.4519 149.594 32.3582C160.963 31.8613 198.081 31.802 223.5 32.0005C252 32 241 29.7101 241 40.5007V224.287C241 235.175 232.146 244.001 221.225 244.001H34.775C23.8536 244.001 15 235.175 15 224.287V132.681H15.1325Z" fill="white"/>
</g>
<defs>
<filter id="filter0_f_228_4006" x="0.875" y="0.875" width="94.25" height="94.25" filterUnits="userSpaceOnUse" color-interpolation-filters="sRGB">
<feFlood flood-opacity="0" result="BackgroundImageFix"/>
<feBlend mode="normal" in="SourceGraphic" in2="BackgroundImageFix" result="shape"/>
<feGaussianBlur stdDeviation="7.0625" result="effect1_foregroundBlur_228_4006"/>
</filter>
</defs>
</svg>

<svg xmlns="http://www.w3.org/2000/svg" width="241" height="118" fill="none"><path fill="#F2F4F8" d="M15 60c0-27.614 22.386-50 50-50h176v108H15z"/><path fill="#fff" d="M60.2 35.227c-.546-.293-1.693-.6-3.253.494l-1.96 1.386c-.146-4.146-1.946-5.773-6.32-5.773h-8c-4.56 0-6.333 1.773-6.333 6.333v10.667c0 3.067 1.667 6.333 6.333 6.333h8c4.374 0 6.174-1.626 6.32-5.773l1.96 1.387c.827.586 1.547.773 2.12.773.494 0 .88-.147 1.134-.28.546-.28 1.466-1.04 1.466-2.947v-9.653c0-1.907-.92-2.667-1.466-2.947m-13.533 6.947a2.51 2.51 0 0 1-2.506-2.507 2.51 2.51 0 0 1 2.506-2.506 2.51 2.51 0 0 1 2.507 2.506 2.51 2.51 0 0 1-2.507 2.507"/><g filter="url(#a)" opacity=".4"><circle cx="48" cy="48" r="33" fill="#56B8FF"/></g><circle cx="48" cy="43" r="33" fill="#56B8FF"/><path fill="#fff" d="M40.331 51.507a5.06 5.06 0 0 1-2.908-.924 4.9 4.9 0 0 1-1.815-2.415l-.047-.15a4.7 4.7 0 0 1-.23-1.42v-8.925l-3.235 10.6a2.93 2.93 0 0 0 .31 2.23 3.02 3.02 0 0 0 1.813 1.377l20.619 5.421q.386.098.768.097c1.328 0 2.541-.865 2.881-2.14l1.202-3.75zm3.667-13.745c1.47 0 2.667-1.175 2.667-2.618 0-1.444-1.196-2.619-2.667-2.619s-2.667 1.175-2.667 2.619 1.196 2.618 2.667 2.618"/><path fill="#fff" d="M60.665 28.6H40.664a3.37 3.37 0 0 0-2.356.96 3.25 3.25 0 0 0-.978 2.312v14.4c0 1.804 1.496 3.273 3.334 3.273h20.001c1.838 0 3.334-1.469 3.334-3.273v-14.4c0-1.804-1.496-3.272-3.334-3.272m-20.001 2.618h20.001c.177 0 .347.069.472.192.125.122.195.289.195.462v9.294L57.12 36.34a2.4 2.4 0 0 0-.806-.591 2.4 2.4 0 0 0-.983-.214c-.34.002-.676.077-.983.22-.308.142-.58.35-.798.606l-4.952 5.836-1.614-1.58a2.36 2.36 0 0 0-1.653-.672c-.62 0-1.215.242-1.654.672l-3.68 3.612V31.872c0-.173.07-.34.195-.462a.67.67 0 0 1 .472-.192"/><mask id="b" width="226" height="86" x="15" y="32" maskUnits="userSpaceOnUse" style="mask-type:alpha"><path fill="#D9D9D9" d="M15 32h226v86H15z"/></mask><g mask="url(#b)"><path fill="#fff" d="M15.133 132.681v-18.576c-.806-8.634 1.165-25.76 31.703-27.892 28.048-1.958 34.017-5.912 48.717-31.682 12.1-21.214 30.573-21.615 47.49-21.983 2.216-.049 4.406-.096 6.551-.19 11.369-.497 48.487-.556 73.906-.357C252 32 241 29.71 241 40.5v183.786c0 10.888-8.854 19.714-19.775 19.714H34.775c-10.921 0-19.775-8.826-19.775-19.714v-91.606z"/></g><defs><filter id="a" width="94.25" height="94.25" x=".875" y=".875" color-interpolation-filters="sRGB" filterUnits="userSpaceOnUse"><feFlood flood-opacity="0" result="BackgroundImageFix"/><feBlend in="SourceGraphic" in2="BackgroundImageFix" result="shape"/><feGaussianBlur result="effect1_foregroundBlur_228_4006" stdDeviation="7.063"/></filter></defs></svg>
